images/3235111.svg

<?xml version="1.0" encoding="UTF-8"?>
<svg xmlns="http://www.w3.org/2000/svg" xmlns:xlink="http://www.w3.org/1999/xlink" width="300pt" height="300pt" viewBox="0 0 300 300" version="1.1">
<defs>
<g>
<symbol overflow="visible" id="glyph0-0">
<path style="stroke:none;" d="M 0.453125 1.59375 L 0.453125 -6.34375 L 4.953125 -6.34375 L 4.953125 1.59375 Z M 0.953125 1.09375 L 4.453125 1.09375 L 4.453125 -5.84375 L 0.953125 -5.84375 Z M 0.953125 1.09375 "/>
</symbol>
<symbol overflow="visible" id="glyph0-1">
<path style="stroke:none;" d="M 3.546875 -5.953125 C 2.898438 -5.953125 2.382812 -5.710938 2 -5.234375 C 1.625 -4.753906 1.4375 -4.101562 1.4375 -3.28125 C 1.4375 -2.445312 1.625 -1.789062 2 -1.3125 C 2.382812 -0.832031 2.898438 -0.59375 3.546875 -0.59375 C 4.191406 -0.59375 4.703125 -0.832031 5.078125 -1.3125 C 5.453125 -1.789062 5.640625 -2.445312 5.640625 -3.28125 C 5.640625 -4.101562 5.453125 -4.753906 5.078125 -5.234375 C 4.703125 -5.710938 4.191406 -5.953125 3.546875 -5.953125 Z M 3.546875 -6.6875 C 4.460938 -6.6875 5.195312 -6.375 5.75 -5.75 C 6.300781 -5.132812 6.578125 -4.3125 6.578125 -3.28125 C 6.578125 -2.238281 6.300781 -1.410156 5.75 -0.796875 C 5.195312 -0.179688 4.460938 0.125 3.546875 0.125 C 2.617188 0.125 1.878906 -0.179688 1.328125 -0.796875 C 0.773438 -1.410156 0.5 -2.238281 0.5 -3.28125 C 0.5 -4.3125 0.773438 -5.132812 1.328125 -5.75 C 1.878906 -6.375 2.617188 -6.6875 3.546875 -6.6875 Z M 3.546875 -6.6875 "/>
</symbol>
<symbol overflow="visible" id="glyph0-2">
<path style="stroke:none;" d="M 0.890625 -6.5625 L 2.078125 -6.5625 L 4.984375 -1.078125 L 4.984375 -6.5625 L 5.84375 -6.5625 L 5.84375 0 L 4.65625 0 L 1.75 -5.484375 L 1.75 0 L 0.890625 0 Z M 0.890625 -6.5625 "/>
</symbol>
</g>
</defs>
<g id="surface45329">
<rect x="0" y="0" width="300" height="300" style="fill:rgb(100%,100%,100%);fill-opacity:1;stroke:none;"/>
<path style="fill:none;stroke-width:1.2;stroke-linecap:butt;stroke-linejoin:miter;stroke:rgb(0%,0%,0%);stroke-opacity:1;stroke-miterlimit:10;" d="M 35.25 150.652344 L 41.320312 161.082031 "/>
<path style="fill:none;stroke-width:1.2;stroke-linecap:butt;stroke-linejoin:miter;stroke:rgb(100%,0%,0%);stroke-opacity:1;stroke-miterlimit:10;" d="M 41.320312 161.082031 L 47.390625 171.507812 "/>
<path style="fill:none;stroke-width:1.2;stroke-linecap:butt;stroke-linejoin:miter;stroke:rgb(100%,0%,0%);stroke-opacity:1;stroke-miterlimit:10;" d="M 47.390625 171.507812 L 59.460938 171.464844 "/>
<path style="fill:none;stroke-width:1.2;stroke-linecap:butt;stroke-linejoin:miter;stroke:rgb(0%,0%,0%);stroke-opacity:1;stroke-miterlimit:10;" d="M 59.460938 171.464844 L 71.527344 171.421875 "/>
<path style=" stroke:none;fill-rule:nonzero;fill:rgb(100%,100%,100%);fill-opacity:1;" d="M 43.390625 166.007812 L 51.390625 166.007812 L 51.390625 177.007812 L 43.390625 177.007812 Z M 43.390625 166.007812 "/>
<g style="fill:rgb(100%,0%,0%);fill-opacity:1;">
  <use xlink:href="#glyph0-1" x="43.390625" y="174.670898"/>
</g>
<path style="fill:none;stroke-width:1.2;stroke-linecap:butt;stroke-linejoin:miter;stroke:rgb(0%,0%,0%);stroke-opacity:1;stroke-miterlimit:10;" d="M 71.527344 171.421875 L 83.519531 150.476562 "/>
<path style="fill:none;stroke-width:1.2;stroke-linecap:butt;stroke-linejoin:miter;stroke:rgb(0%,0%,0%);stroke-opacity:1;stroke-miterlimit:10;" d="M 77.652344 172.148438 L 87.246094 155.394531 "/>
<path style="fill:none;stroke-width:1.2;stroke-linecap:butt;stroke-linejoin:miter;stroke:rgb(0%,0%,0%);stroke-opacity:1;stroke-miterlimit:10;" d="M 83.667969 192.28125 L 71.527344 171.421875 "/>
<path style="fill:none;stroke-width:1.2;stroke-linecap:butt;stroke-linejoin:miter;stroke:rgb(0%,0%,0%);stroke-opacity:1;stroke-miterlimit:10;" d="M 83.519531 150.476562 L 107.652344 150.390625 "/>
<path style="fill:none;stroke-width:1.2;stroke-linecap:butt;stroke-linejoin:miter;stroke:rgb(0%,0%,0%);stroke-opacity:1;stroke-miterlimit:10;" d="M 107.652344 150.390625 L 119.792969 171.25 "/>
<path style="fill:none;stroke-width:1.2;stroke-linecap:butt;stroke-linejoin:miter;stroke:rgb(0%,0%,0%);stroke-opacity:1;stroke-miterlimit:10;" d="M 103.960938 155.332031 L 113.671875 172.019531 "/>
<path style="fill:none;stroke-width:1.2;stroke-linecap:butt;stroke-linejoin:miter;stroke:rgb(0%,0%,0%);stroke-opacity:1;stroke-miterlimit:10;" d="M 119.792969 171.25 L 107.804688 192.191406 "/>
<path style="fill:none;stroke-width:1.2;stroke-linecap:butt;stroke-linejoin:miter;stroke:rgb(0%,0%,0%);stroke-opacity:1;stroke-miterlimit:10;" d="M 119.792969 171.25 L 143.929688 171.160156 "/>
<path style="fill:none;stroke-width:1.2;stroke-linecap:butt;stroke-linejoin:miter;stroke:rgb(0%,0%,0%);stroke-opacity:1;stroke-miterlimit:10;" d="M 107.804688 192.191406 L 83.667969 192.28125 "/>
<path style="fill:none;stroke-width:1.2;stroke-linecap:butt;stroke-linejoin:miter;stroke:rgb(0%,0%,0%);stroke-opacity:1;stroke-miterlimit:10;" d="M 105.367188 186.523438 L 86.0625 186.59375 "/>
<path style="fill:none;stroke-width:1.2;stroke-linecap:butt;stroke-linejoin:miter;stroke:rgb(0%,0%,0%);stroke-opacity:1;stroke-miterlimit:10;" d="M 143.929688 171.160156 L 150 181.589844 "/>
<path style="fill:none;stroke-width:1.2;stroke-linecap:butt;stroke-linejoin:miter;stroke:rgb(0%,0%,100%);stroke-opacity:1;stroke-miterlimit:10;" d="M 150 181.589844 L 156.070312 192.019531 "/>
<path style="fill:none;stroke-width:1.2;stroke-linecap:butt;stroke-linejoin:miter;stroke:rgb(0%,0%,0%);stroke-opacity:1;stroke-miterlimit:10;" d="M 150.050781 170.390625 L 154.90625 178.734375 "/>
<path style="fill:none;stroke-width:1.2;stroke-linecap:butt;stroke-linejoin:miter;stroke:rgb(0%,0%,100%);stroke-opacity:1;stroke-miterlimit:10;" d="M 154.90625 178.734375 L 159.765625 187.074219 "/>
<path style="fill:none;stroke-width:1.2;stroke-linecap:butt;stroke-linejoin:miter;stroke:rgb(0%,0%,0%);stroke-opacity:1;stroke-miterlimit:10;" d="M 155.921875 150.21875 L 143.929688 171.160156 "/>
<path style="fill:none;stroke-width:1.2;stroke-linecap:butt;stroke-linejoin:miter;stroke:rgb(0%,0%,100%);stroke-opacity:1;stroke-miterlimit:10;" d="M 156.070312 192.019531 L 168.136719 191.976562 "/>
<path style="fill:none;stroke-width:1.2;stroke-linecap:butt;stroke-linejoin:miter;stroke:rgb(0%,0%,0%);stroke-opacity:1;stroke-miterlimit:10;" d="M 168.136719 191.976562 L 180.207031 191.933594 "/>
<path style=" stroke:none;fill-rule:nonzero;fill:rgb(100%,100%,100%);fill-opacity:1;" d="M 153.070312 186.519531 L 160.070312 186.519531 L 160.070312 197.519531 L 153.070312 197.519531 Z M 153.070312 186.519531 "/>
<g style="fill:rgb(0%,0%,100%);fill-opacity:1;">
  <use xlink:href="#glyph0-2" x="153.070312" y="195.182617"/>
</g>
<path style="fill:none;stroke-width:1.2;stroke-linecap:butt;stroke-linejoin:miter;stroke:rgb(0%,0%,0%);stroke-opacity:1;stroke-miterlimit:10;" d="M 180.207031 191.933594 L 192.347656 212.789062 "/>
<path style="fill:none;stroke-width:1.2;stroke-linecap:butt;stroke-linejoin:miter;stroke:rgb(0%,0%,0%);stroke-opacity:1;stroke-miterlimit:10;" d="M 186.328125 191.160156 L 196.039062 207.847656 "/>
<path style="fill:none;stroke-width:1.2;stroke-linecap:butt;stroke-linejoin:miter;stroke:rgb(0%,0%,0%);stroke-opacity:1;stroke-miterlimit:10;" d="M 192.195312 170.988281 L 180.207031 191.933594 "/>
<path style="fill:none;stroke-width:1.2;stroke-linecap:butt;stroke-linejoin:miter;stroke:rgb(0%,0%,0%);stroke-opacity:1;stroke-miterlimit:10;" d="M 192.347656 212.789062 L 204.414062 212.746094 "/>
<path style="fill:none;stroke-width:1.2;stroke-linecap:butt;stroke-linejoin:miter;stroke:rgb(0%,0%,100%);stroke-opacity:1;stroke-miterlimit:10;" d="M 204.414062 212.746094 L 216.480469 212.703125 "/>
<path style="fill:none;stroke-width:1.2;stroke-linecap:butt;stroke-linejoin:miter;stroke:rgb(0%,0%,100%);stroke-opacity:1;stroke-miterlimit:10;" d="M 216.480469 212.703125 L 222.476562 202.230469 "/>
<path style="fill:none;stroke-width:1.2;stroke-linecap:butt;stroke-linejoin:miter;stroke:rgb(0%,0%,0%);stroke-opacity:1;stroke-miterlimit:10;" d="M 222.476562 202.230469 L 228.472656 191.757812 "/>
<path style="fill:none;stroke-width:1.2;stroke-linecap:butt;stroke-linejoin:miter;stroke:rgb(0%,0%,100%);stroke-opacity:1;stroke-miterlimit:10;" d="M 212.753906 207.785156 L 217.550781 199.410156 "/>
<path style="fill:none;stroke-width:1.2;stroke-linecap:butt;stroke-linejoin:miter;stroke:rgb(0%,0%,0%);stroke-opacity:1;stroke-miterlimit:10;" d="M 217.550781 199.410156 L 222.347656 191.03125 "/>
<path style=" stroke:none;fill-rule:nonzero;fill:rgb(100%,100%,100%);fill-opacity:1;" d="M 213.480469 207.203125 L 220.480469 207.203125 L 220.480469 218.203125 L 213.480469 218.203125 Z M 213.480469 207.203125 "/>
<g style="fill:rgb(0%,0%,100%);fill-opacity:1;">
  <use xlink:href="#glyph0-2" x="213.480469" y="215.866211"/>
</g>
<path style="fill:none;stroke-width:1.2;stroke-linecap:butt;stroke-linejoin:miter;stroke:rgb(0%,0%,0%);stroke-opacity:1;stroke-miterlimit:10;" d="M 228.472656 191.757812 L 222.402344 181.328125 "/>
<path style="fill:none;stroke-width:1.2;stroke-linecap:butt;stroke-linejoin:miter;stroke:rgb(0%,0%,100%);stroke-opacity:1;stroke-miterlimit:10;" d="M 222.402344 181.328125 L 216.332031 170.902344 "/>
<path style="fill:none;stroke-width:1.2;stroke-linecap:butt;stroke-linejoin:miter;stroke:rgb(0%,0%,0%);stroke-opacity:1;stroke-miterlimit:10;" d="M 228.472656 191.757812 L 240.539062 191.714844 "/>
<path style="fill:none;stroke-width:1.2;stroke-linecap:butt;stroke-linejoin:miter;stroke:rgb(100%,0%,0%);stroke-opacity:1;stroke-miterlimit:10;" d="M 240.539062 191.714844 L 252.609375 191.671875 "/>
<path style="fill:none;stroke-width:1.2;stroke-linecap:butt;stroke-linejoin:miter;stroke:rgb(0%,0%,100%);stroke-opacity:1;stroke-miterlimit:10;" d="M 216.332031 170.902344 L 204.265625 170.945312 "/>
<path style="fill:none;stroke-width:1.2;stroke-linecap:butt;stroke-linejoin:miter;stroke:rgb(0%,0%,0%);stroke-opacity:1;stroke-miterlimit:10;" d="M 204.265625 170.945312 L 192.195312 170.988281 "/>
<path style="fill:none;stroke-width:1.2;stroke-linecap:butt;stroke-linejoin:miter;stroke:rgb(0%,0%,100%);stroke-opacity:1;stroke-miterlimit:10;" d="M 213.9375 176.589844 L 204.285156 176.621094 "/>
<path style="fill:none;stroke-width:1.2;stroke-linecap:butt;stroke-linejoin:miter;stroke:rgb(0%,0%,0%);stroke-opacity:1;stroke-miterlimit:10;" d="M 204.285156 176.621094 L 194.632812 176.65625 "/>
<path style=" stroke:none;fill-rule:nonzero;fill:rgb(100%,100%,100%);fill-opacity:1;" d="M 213.332031 165.402344 L 220.332031 165.402344 L 220.332031 176.402344 L 213.332031 176.402344 Z M 213.332031 165.402344 "/>
<g style="fill:rgb(0%,0%,100%);fill-opacity:1;">
  <use xlink:href="#glyph0-2" x="213.332031" y="174.06543"/>
</g>
<path style="fill:none;stroke-width:1.2;stroke-linecap:butt;stroke-linejoin:miter;stroke:rgb(0%,0%,0%);stroke-opacity:1;stroke-miterlimit:10;" d="M 192.195312 170.988281 L 186.125 160.558594 "/>
<path style="fill:none;stroke-width:1.2;stroke-linecap:butt;stroke-linejoin:miter;stroke:rgb(0%,0%,100%);stroke-opacity:1;stroke-miterlimit:10;" d="M 186.125 160.558594 L 180.054688 150.128906 "/>
<path style="fill:none;stroke-width:1.2;stroke-linecap:butt;stroke-linejoin:miter;stroke:rgb(0%,0%,100%);stroke-opacity:1;stroke-miterlimit:10;" d="M 180.054688 150.128906 L 167.988281 150.175781 "/>
<path style="fill:none;stroke-width:1.2;stroke-linecap:butt;stroke-linejoin:miter;stroke:rgb(0%,0%,0%);stroke-opacity:1;stroke-miterlimit:10;" d="M 167.988281 150.175781 L 155.921875 150.21875 "/>
<path style="fill:none;stroke-width:1.2;stroke-linecap:butt;stroke-linejoin:miter;stroke:rgb(0%,0%,100%);stroke-opacity:1;stroke-miterlimit:10;" d="M 180.054688 150.128906 L 186.050781 139.660156 "/>
<path style="fill:none;stroke-width:1.2;stroke-linecap:butt;stroke-linejoin:miter;stroke:rgb(0%,0%,0%);stroke-opacity:1;stroke-miterlimit:10;" d="M 186.050781 139.660156 L 192.046875 129.1875 "/>
<path style=" stroke:none;fill-rule:nonzero;fill:rgb(100%,100%,100%);fill-opacity:1;" d="M 177.054688 144.628906 L 184.054688 144.628906 L 184.054688 155.628906 L 177.054688 155.628906 Z M 177.054688 144.628906 "/>
<g style="fill:rgb(0%,0%,100%);fill-opacity:1;">
  <use xlink:href="#glyph0-2" x="177.054688" y="153.291992"/>
</g>
<path style="fill:none;stroke-width:1.2;stroke-linecap:butt;stroke-linejoin:miter;stroke:rgb(0%,0%,0%);stroke-opacity:1;stroke-miterlimit:10;" d="M 158.375 148.789062 L 152.304688 138.359375 "/>
<path style="fill:none;stroke-width:1.2;stroke-linecap:butt;stroke-linejoin:miter;stroke:rgb(100%,0%,0%);stroke-opacity:1;stroke-miterlimit:10;" d="M 152.304688 138.359375 L 146.230469 127.929688 "/>
<path style="fill:none;stroke-width:1.2;stroke-linecap:butt;stroke-linejoin:miter;stroke:rgb(0%,0%,0%);stroke-opacity:1;stroke-miterlimit:10;" d="M 153.46875 151.644531 L 147.394531 141.21875 "/>
<path style="fill:none;stroke-width:1.2;stroke-linecap:butt;stroke-linejoin:miter;stroke:rgb(100%,0%,0%);stroke-opacity:1;stroke-miterlimit:10;" d="M 147.394531 141.21875 L 141.324219 130.789062 "/>
<path style=" stroke:none;fill-rule:nonzero;fill:rgb(100%,100%,100%);fill-opacity:1;" d="M 135.777344 123.859375 L 143.777344 123.859375 L 143.777344 134.859375 L 135.777344 134.859375 Z M 135.777344 123.859375 "/>
<g style="fill:rgb(100%,0%,0%);fill-opacity:1;">
  <use xlink:href="#glyph0-1" x="135.777344" y="132.522461"/>
</g>
<path style="fill:none;stroke-width:1.2;stroke-linecap:butt;stroke-linejoin:miter;stroke:rgb(0%,0%,0%);stroke-opacity:1;stroke-miterlimit:10;" d="M 192.046875 129.1875 L 216.179688 129.097656 "/>
<path style="fill:none;stroke-width:1.2;stroke-linecap:butt;stroke-linejoin:miter;stroke:rgb(0%,0%,0%);stroke-opacity:1;stroke-miterlimit:10;" d="M 216.179688 129.097656 L 228.171875 108.15625 "/>
<path style="fill:none;stroke-width:1.2;stroke-linecap:butt;stroke-linejoin:miter;stroke:rgb(0%,0%,0%);stroke-opacity:1;stroke-miterlimit:10;" d="M 228.171875 108.15625 L 234.167969 97.683594 "/>
<path style="fill:none;stroke-width:1.2;stroke-linecap:butt;stroke-linejoin:miter;stroke:rgb(0%,0%,100%);stroke-opacity:1;stroke-miterlimit:10;" d="M 234.167969 97.683594 L 240.164062 87.210938 "/>
<path style="fill:none;stroke-width:1.2;stroke-linecap:butt;stroke-linejoin:miter;stroke:rgb(0%,0%,0%);stroke-opacity:1;stroke-miterlimit:10;" d="M 234.300781 108.882812 L 239.097656 100.503906 "/>
<path style="fill:none;stroke-width:1.2;stroke-linecap:butt;stroke-linejoin:miter;stroke:rgb(0%,0%,100%);stroke-opacity:1;stroke-miterlimit:10;" d="M 239.097656 100.503906 L 243.894531 92.125 "/>
<path style="fill:none;stroke-width:1.2;stroke-linecap:butt;stroke-linejoin:miter;stroke:rgb(0%,0%,0%);stroke-opacity:1;stroke-miterlimit:10;" d="M 224.445312 103.238281 L 229.242188 94.859375 "/>
<path style="fill:none;stroke-width:1.2;stroke-linecap:butt;stroke-linejoin:miter;stroke:rgb(0%,0%,100%);stroke-opacity:1;stroke-miterlimit:10;" d="M 229.242188 94.859375 L 234.035156 86.484375 "/>
<path style=" stroke:none;fill-rule:nonzero;fill:rgb(100%,100%,100%);fill-opacity:1;" d="M 237.164062 81.710938 L 244.164062 81.710938 L 244.164062 92.710938 L 237.164062 92.710938 Z M 237.164062 81.710938 "/>
<g style="fill:rgb(0%,0%,100%);fill-opacity:1;">
  <use xlink:href="#glyph0-2" x="237.164062" y="90.374023"/>
</g>
<path style="fill:none;stroke-width:1.2;stroke-linecap:butt;stroke-linejoin:miter;stroke:rgb(100%,0%,0%);stroke-opacity:1;stroke-miterlimit:10;" d="M 252.609375 191.671875 L 258.679688 202.101562 "/>
<path style="fill:none;stroke-width:1.2;stroke-linecap:butt;stroke-linejoin:miter;stroke:rgb(0%,0%,0%);stroke-opacity:1;stroke-miterlimit:10;" d="M 258.679688 202.101562 L 264.75 212.527344 "/>
<path style=" stroke:none;fill-rule:nonzero;fill:rgb(100%,100%,100%);fill-opacity:1;" d="M 248.609375 186.171875 L 256.609375 186.171875 L 256.609375 197.171875 L 248.609375 197.171875 Z M 248.609375 186.171875 "/>
<g style="fill:rgb(100%,0%,0%);fill-opacity:1;">
  <use xlink:href="#glyph0-1" x="248.609375" y="194.834961"/>
</g>
</g>
</svg>

<svg xmlns="http://www.w3.org/2000/svg" xmlns:xlink="http://www.w3.org/1999/xlink" width="300pt" height="300pt" viewBox="0 0 300 300"><defs><symbol overflow="visible"><path d="M.453 1.594v-7.938h4.5v7.938zm.5-.5h3.5v-6.938h-3.5zm0 0"/></symbol><symbol overflow="visible" id="a"><path d="M3.547-5.953c-.65 0-1.164.242-1.547.72-.375.48-.563 1.13-.563 1.952 0 .835.188 1.49.563 1.967.383.48.898.72 1.547.72.644 0 1.156-.24 1.53-.72.376-.476.564-1.132.564-1.968 0-.822-.187-1.474-.562-1.954-.375-.477-.887-.72-1.53-.72zm0-.734c.914 0 1.648.312 2.203.937.55.617.828 1.438.828 2.47 0 1.042-.277 1.87-.828 2.483-.555.617-1.29.922-2.203.922-.93 0-1.668-.305-2.22-.922C.774-1.41.5-2.237.5-3.28c0-1.033.273-1.853.828-2.47.55-.625 1.29-.938 2.22-.938zm0 0"/></symbol><symbol overflow="visible" id="b"><path d="M.89-6.563H2.08l2.906 5.485v-5.484h.86V0H4.656L1.75-5.484V0H.89zm0 0"/></symbol></defs><g><path fill="#fff" d="M0 0h300v300H0z"/><path d="M35.25 150.652l6.07 10.43" stroke-width="1.2" stroke="#000" stroke-miterlimit="10" fill="none"/><path d="M41.32 161.082l6.07 10.426M47.39 171.508l12.07-.043" stroke-width="1.2" stroke="#f00" stroke-miterlimit="10" fill="none"/><path d="M59.46 171.465l12.067-.043" stroke-width="1.2" stroke="#000" stroke-miterlimit="10" fill="none"/><path d="M43.39 166.008h8v11h-8zm0 0" fill="#fff"/><use xlink:href="#a" x="43.391" y="174.671" fill="#f00"/><path d="M71.527 171.422l11.993-20.945M77.652 172.148l9.594-16.753M83.668 192.28l-12.14-20.858M83.52 150.477l24.132-.086M107.652 150.39l12.14 20.86M103.96 155.332l9.712 16.688M119.793 171.25l-11.988 20.94M119.793 171.25l24.137-.09M107.805 192.19l-24.137.09M105.367 186.523l-19.305.07M143.93 171.16l6.07 10.43" stroke-width="1.2" stroke="#000" stroke-miterlimit="10" fill="none"/><path d="M150 181.59l6.07 10.43" stroke-width="1.2" stroke="#00f" stroke-miterlimit="10" fill="none"/><path d="M150.05 170.39l4.856 8.344" stroke-width="1.2" stroke="#000" stroke-miterlimit="10" fill="none"/><path d="M154.906 178.734l4.86 8.34" stroke-width="1.2" stroke="#00f" stroke-miterlimit="10" fill="none"/><path d="M155.922 150.22l-11.992 20.94" stroke-width="1.2" stroke="#000" stroke-miterlimit="10" fill="none"/><path d="M156.07 192.02l12.067-.043" stroke-width="1.2" stroke="#00f" stroke-miterlimit="10" fill="none"/><path d="M168.137 191.977l12.07-.043" stroke-width="1.2" stroke="#000" stroke-miterlimit="10" fill="none"/><path d="M153.07 186.52h7v11h-7zm0 0" fill="#fff"/><use xlink:href="#b" x="153.07" y="195.183" fill="#00f"/><path d="M180.207 191.934l12.14 20.855M186.328 191.16l9.71 16.688M192.195 170.988l-11.988 20.946M192.348 212.79l12.066-.044" stroke-width="1.2" stroke="#000" stroke-miterlimit="10" fill="none"/><path d="M204.414 212.746l12.066-.043M216.48 212.703l5.997-10.473" stroke-width="1.2" stroke="#00f" stroke-miterlimit="10" fill="none"/><path d="M222.477 202.23l5.996-10.472" stroke-width="1.2" stroke="#000" stroke-miterlimit="10" fill="none"/><path d="M212.754 207.785l4.797-8.375" stroke-width="1.2" stroke="#00f" stroke-miterlimit="10" fill="none"/><path d="M217.55 199.41l4.798-8.38" stroke-width="1.2" stroke="#000" stroke-miterlimit="10" fill="none"/><path d="M213.48 207.203h7v11h-7zm0 0" fill="#fff"/><use xlink:href="#b" x="213.48" y="215.866" fill="#00f"/><path d="M228.473 191.758l-6.07-10.43" stroke-width="1.2" stroke="#000" stroke-miterlimit="10" fill="none"/><path d="M222.402 181.328l-6.07-10.426" stroke-width="1.2" stroke="#00f" stroke-miterlimit="10" fill="none"/><path d="M228.473 191.758l12.066-.043" stroke-width="1.2" stroke="#000" stroke-miterlimit="10" fill="none"/><path d="M240.54 191.715l12.07-.043" stroke-width="1.2" stroke="#f00" stroke-miterlimit="10" fill="none"/><path d="M216.332 170.902l-12.066.043" stroke-width="1.2" stroke="#00f" stroke-miterlimit="10" fill="none"/><path d="M204.266 170.945l-12.07.043" stroke-width="1.2" stroke="#000" stroke-miterlimit="10" fill="none"/><path d="M213.938 176.59l-9.653.03" stroke-width="1.2" stroke="#00f" stroke-miterlimit="10" fill="none"/><path d="M204.285 176.62l-9.652.036" stroke-width="1.2" stroke="#000" stroke-miterlimit="10" fill="none"/><path d="M213.332 165.402h7v11h-7zm0 0" fill="#fff"/><use xlink:href="#b" x="213.332" y="174.065" fill="#00f"/><path d="M192.195 170.988l-6.07-10.43" stroke-width="1.2" stroke="#000" stroke-miterlimit="10" fill="none"/><path d="M186.125 160.56l-6.07-10.43M180.055 150.13l-12.067.046" stroke-width="1.2" stroke="#00f" stroke-miterlimit="10" fill="none"/><path d="M167.988 150.176l-12.066.043" stroke-width="1.2" stroke="#000" stroke-miterlimit="10" fill="none"/><path d="M180.055 150.13l5.996-10.47" stroke-width="1.2" stroke="#00f" stroke-miterlimit="10" fill="none"/><path d="M186.05 139.66l5.997-10.472" stroke-width="1.2" stroke="#000" stroke-miterlimit="10" fill="none"/><path d="M177.055 144.63h7v11h-7zm0 0" fill="#fff"/><use xlink:href="#b" x="177.055" y="153.292" fill="#00f"/><path d="M158.375 148.79l-6.07-10.43" stroke-width="1.2" stroke="#000" stroke-miterlimit="10" fill="none"/><path d="M152.305 138.36l-6.075-10.43" stroke-width="1.2" stroke="#f00" stroke-miterlimit="10" fill="none"/><path d="M153.47 151.645l-6.075-10.426" stroke-width="1.2" stroke="#000" stroke-miterlimit="10" fill="none"/><path d="M147.395 141.22l-6.07-10.43" stroke-width="1.2" stroke="#f00" stroke-miterlimit="10" fill="none"/><path d="M135.777 123.86h8v11h-8zm0 0" fill="#fff"/><use xlink:href="#a" x="135.777" y="132.522" fill="#f00"/><path d="M192.047 129.188l24.133-.09M216.18 129.098l11.992-20.942M228.172 108.156l5.996-10.472" stroke-width="1.2" stroke="#000" stroke-miterlimit="10" fill="none"/><path d="M234.168 97.684l5.996-10.473" stroke-width="1.2" stroke="#00f" stroke-miterlimit="10" fill="none"/><path d="M234.3 108.883l4.798-8.38" stroke-width="1.2" stroke="#000" stroke-miterlimit="10" fill="none"/><path d="M239.098 100.504l4.797-8.38" stroke-width="1.2" stroke="#00f" stroke-miterlimit="10" fill="none"/><path d="M224.445 103.238l4.797-8.38" stroke-width="1.2" stroke="#000" stroke-miterlimit="10" fill="none"/><path d="M229.242 94.86l4.793-8.376" stroke-width="1.2" stroke="#00f" stroke-miterlimit="10" fill="none"/><path d="M237.164 81.71h7v11h-7zm0 0" fill="#fff"/><use xlink:href="#b" x="237.164" y="90.374" fill="#00f"/><path d="M252.61 191.672l6.07 10.43" stroke-width="1.2" stroke="#f00" stroke-miterlimit="10" fill="none"/><path d="M258.68 202.102l6.07 10.425" stroke-width="1.2" stroke="#000" stroke-miterlimit="10" fill="none"/><path d="M248.61 186.172h8v11h-8zm0 0" fill="#fff"/><use xlink:href="#a" x="248.609" y="194.835" fill="#f00"/></g></svg>
